apps/24/utilities-terminal.svg

<?xml version="1.0" encoding="UTF-8" standalone="no"?>
<svg
   xmlns:dc="http://purl.org/dc/elements/1.1/"
   xmlns:cc="http://creativecommons.org/ns#"
   xmlns:rdf="http://www.w3.org/1999/02/22-rdf-syntax-ns#"
   xmlns:svg="http://www.w3.org/2000/svg"
   xmlns="http://www.w3.org/2000/svg"
   xmlns:xlink="http://www.w3.org/1999/xlink"
   version="1.1"
   width="24"
   height="24"
   id="svg3426">
  <defs
     id="defs3428">
    <radialGradient
       cx="4.9929786"
       cy="43.5"
       r="2.5"
       fx="4.9929786"
       fy="43.5"
       id="radialGradient3152"
       xlink:href="#linearGradient3688-166-749"
       gradientUnits="userSpaceOnUse"
       gradientTransform="matrix(2.003784,0,0,1.4,27.98813,-17.4)" />
    <linearGradient
       id="linearGradient3688-166-749">
      <stop
         id="stop2883"
         style="stop-color:#181818;stop-opacity:1"
         offset="0" />
      <stop
         id="stop2885"
         style="stop-color:#181818;stop-opacity:0"
         offset="1" />
    </linearGradient>
    <radialGradient
       cx="4.9929786"
       cy="43.5"
       r="2.5"
       fx="4.9929786"
       fy="43.5"
       id="radialGradient3154"
       xlink:href="#linearGradient3688-464-309"
       gradientUnits="userSpaceOnUse"
       gradientTransform="matrix(2.003784,0,0,1.4,-20.01187,-104.4)" />
    <linearGradient
       id="linearGradient3688-464-309">
      <stop
         id="stop2889"
         style="stop-color:#181818;stop-opacity:1"
         offset="0" />
      <stop
         id="stop2891"
         style="stop-color:#181818;stop-opacity:0"
         offset="1" />
    </linearGradient>
    <linearGradient
       x1="25.058096"
       y1="47.027729"
       x2="25.058096"
       y2="39.999443"
       id="linearGradient3156"
       xlink:href="#linearGradient3702-501-757"
       gradientUnits="userSpaceOnUse" />
    <linearGradient
       id="linearGradient3702-501-757">
      <stop
         id="stop2895"
         style="stop-color:#181818;stop-opacity:0"
         offset="0" />
      <stop
         id="stop2897"
         style="stop-color:#181818;stop-opacity:1"
         offset="0.5" />
      <stop
         id="stop2899"
         style="stop-color:#181818;stop-opacity:0"
         offset="1" />
    </linearGradient>
    <linearGradient
       id="linearGradient3680-6-6-6-3-7-4">
      <stop
         id="stop3682-4-6-1-3-7-5"
         style="stop-color:#dcdcdc;stop-opacity:1"
         offset="0" />
      <stop
         id="stop3684-8-5-8-0-2-3"
         style="stop-color:#ffffff;stop-opacity:1"
         offset="1" />
    </linearGradient>
    <linearGradient
       xlink:href="#linearGradient3680-6-6-6-3-7-4"
       id="linearGradient3875"
       gradientUnits="userSpaceOnUse"
       gradientTransform="matrix(0.46525496,0,0,0.46525496,0.2208768,-0.3282085)"
       x1="20"
       y1="26.000008"
       x2="20"
       y2="13.000008" />
    <linearGradient
       xlink:href="#linearGradient3680-6-6-6-3-7-4"
       id="linearGradient3880"
       gradientUnits="userSpaceOnUse"
       gradientTransform="matrix(0.66257291,0,0,0.66257291,-2.4539575,-4.5672473)"
       x1="20"
       y1="26.000008"
       x2="20"
       y2="13.000008" />
    <linearGradient
       id="linearGradient3924-0">
      <stop
         offset="0"
         style="stop-color:#ffffff;stop-opacity:1"
         id="stop3926-6" />
      <stop
         offset="0.06316455"
         style="stop-color:#ffffff;stop-opacity:0.23529412"
         id="stop3928-3" />
      <stop
         offset="0.95056331"
         style="stop-color:#ffffff;stop-opacity:0.15686275"
         id="stop3930-2" />
      <stop
         offset="1"
         style="stop-color:#ffffff;stop-opacity:0.39215687"
         id="stop3932-62" />
    </linearGradient>
    <linearGradient
       id="linearGradient2867-449-88-871-390-598-476-591-434-148-57-177-8-3-3-6-4-8-8-8-5-6-7">
      <stop
         offset="0"
         style="stop-color:#505050;stop-opacity:1"
         id="stop3750-1-0-7-6-6-1-3-9-3-0-9" />
      <stop
         offset="0.26238"
         style="stop-color:#2b2b2b;stop-opacity:1"
         id="stop3752-3-7-4-0-32-8-923-0-7-7-5" />
      <stop
         offset="0.704952"
         style="stop-color:#0a0a0a;stop-opacity:1"
         id="stop3754-1-8-5-2-7-6-7-1-9-1-6" />
      <stop
         offset="1"
         style="stop-color:#000000;stop-opacity:1"
         id="stop3756-1-6-2-6-6-1-96-6-0-6-5" />
    </linearGradient>
    <radialGradient
       r="12.671875"
       fy="9.9571075"
       fx="7.1183534"
       cy="9.9571075"
       cx="7.1183534"
       gradientTransform="matrix(0,4.4529398,-5.4667877,0,66.838269,-38.124667)"
       gradientUnits="userSpaceOnUse"
       id="radialGradient3173"
       xlink:href="#linearGradient2867-449-88-871-390-598-476-591-434-148-57-177-8-3-3-6-4-8-8-8-5-6-7" />
    <linearGradient
       xlink:href="#linearGradient3924-0"
       id="linearGradient3203"
       gradientUnits="userSpaceOnUse"
       gradientTransform="matrix(0.62162164,0,0,0.62162164,27.298203,-6.3512651)"
       x1="23.99999"
       y1="4.999989"
       x2="23.99999"
       y2="43" />
    <linearGradient
       id="linearGradient3924-64">
      <stop
         id="stop3926-3-6"
         style="stop-color:#ffffff;stop-opacity:1"
         offset="0" />
      <stop
         id="stop3928-0"
         style="stop-color:#ffffff;stop-opacity:0.23529412"
         offset="0.06316455" />
      <stop
         id="stop3930-3-59"
         style="stop-color:#ffffff;stop-opacity:0.15686275"
         offset="0.95056331" />
      <stop
         id="stop3932-0"
         style="stop-color:#ffffff;stop-opacity:0.39215687"
         offset="1" />
    </linearGradient>
    <linearGradient
       y2="43"
       x2="23.99999"
       y1="4.999989"
       x1="23.99999"
       gradientTransform="matrix(0.45945947,0,0,0.45945947,0.9742189,0.9717506)"
       gradientUnits="userSpaceOnUse"
       id="linearGradient3101"
       xlink:href="#linearGradient3924-64" />
  </defs>
  <metadata
     id="metadata3431">
    <rdf:RDF>
      <cc:Work
         rdf:about="">
        <dc:format>image/svg+xml</dc:format>
        <dc:type
           rdf:resource="http://purl.org/dc/dcmitype/StillImage" />
        <dc:title />
      </cc:Work>
    </rdf:RDF>
  </metadata>
  <g
     style="display:inline"
     id="g2036"
     transform="matrix(0.55,0,0,0.3333336,-1.2000011,7.33331)">
    <g
       style="opacity:0.4"
       id="g3712"
       transform="matrix(1.052632,0,0,1.285713,-1.263158,-13.42854)">
      <rect
         style="fill:url(#radialGradient3152);fill-opacity:1;stroke:none"
         id="rect2801"
         y="40"
         x="38"
         height="7"
         width="5" />
      <rect
         style="fill:url(#radialGradient3154);fill-opacity:1;stroke:none"
         id="rect3696"
         transform="scale(-1,-1)"
         y="-47"
         x="-10"
         height="7"
         width="5" />
      <rect
         style="fill:url(#linearGradient3156);fill-opacity:1;stroke:none"
         id="rect3700"
         y="40"
         x="10"
         height="7.0000005"
         width="28" />
    </g>
  </g>
  <rect
     style="opacity:0.9;color:#000000;fill:url(#radialGradient3173);fill-opacity:1;fill-rule:nonzero;stroke:none;stroke-width:0.99999994;marker:none;visibility:visible;display:inline;overflow:visible;enable-background:accumulate"
     id="rect5505-21-6"
     y="2.5000269"
     x="2.499999"
     ry="1"
     rx="1"
     height="19"
     width="19" />
  <path
     style="font-size:14.31169891px;font-style:normal;font-variant:normal;font-weight:bold;font-stretch:normal;line-height:125%;letter-spacing:0px;word-spacing:0px;opacity:0.15;color:#000000;fill:#000000;fill-opacity:1;fill-rule:nonzero;stroke:none;marker:none;visibility:visible;display:inline;overflow:visible;enable-background:accumulate;font-family:Open Sans;-inkscape-font-specification:Open Sans Bold"
     id="path4099"
     d="M 6.0210739,5.0468376 C 5.7124571,5.1117681 5.47056,5.4117209 5.4724845,5.7270884 l 0,0.2852664 C 5.2431928,6.1035109 4.9846652,6.119759 4.7922338,6.2756777 c -0.00569,0.00442 0.00562,0.017499 0,0.021944 -0.00302,0.00239 -0.018945,-0.00239 -0.021944,0 -0.7376089,0.5935108 -0.7681311,1.6363217 -0.2413793,2.3260187 0.00715,0.0075 0.014466,0.01479 0.021943,0.02194 0.095735,0.116157 0.2234706,0.127918 0.3291536,0.219435 C 4.525331,8.8704154 4.2051501,9.19059 4.1997564,9.545266 l 0,0.811912 c -8.357e-4,0.268555 0.1703821,0.529886 0.4169279,0.636364 0.2777487,0.117856 0.5705076,0.11788 0.8557993,0.175549 l 0,0.175548 c 0.00539,0.354676 0.3255747,0.674857 0.6802508,0.680251 l 0.7021944,0 c 0.3546761,-0.0054 0.674857,-0.325575 0.6802508,-0.680251 l 0,-0.219436 c 0.1197698,-0.04605 0.2646409,-0.05261 0.3730407,-0.109717 0.00935,-0.0046 0.012668,-0.0172 0.021944,-0.02194 0.5620589,-0.287322 0.9843007,-0.835953 0.9655167,-1.53605 6e-5,-0.0074 3.9e-5,-0.01455 0,-0.02194 C 8.893881,9.09605 8.808043,8.7896004 8.6104151,8.5139264 c -0.00715,-0.0075 -0.014466,-0.0148 -0.021944,-0.02194 C 8.4437968,8.298923 8.2738609,8.1986 8.1057134,8.075051 8.2487806,8.007388 8.3672043,7.888964 8.434867,7.745897 L 8.7640206,6.999816 C 8.914406,6.6618239 8.7341219,6.2164163 8.3909799,6.0781855 8.1211526,5.962591 7.8206745,5.9441865 7.5351805,5.8806934 l 0,-0.153605 C 7.5297876,5.3724122 7.2096058,5.0522313 6.8549297,5.0468376 l -0.7021944,0 c -0.043754,-0.00419 -0.087908,-0.00419 -0.1316614,0 z M 6.4380018,7.350913 c -0.019198,-0.0084 0.020918,0.02349 0.065831,0.08777 0.038171,0.05465 0.04098,0.09301 0.043887,0.109718 -0.00274,0.02366 -0.016628,0.153585 -0.1316615,0.263323 C 6.2932361,7.928893 6.2123545,7.924613 6.2405097,7.921442 L 6.2185667,7.811724 z m 0.3291536,1.821316 0,0.06583 -0.1974922,0.438872 C 6.5312462,9.621061 6.5041622,9.54179 6.5038322,9.523326 6.5033337,9.512056 6.5332332,9.356758 6.6354937,9.260003 6.7377549,9.163243 6.798447,9.168063 6.7671551,9.172223 z" />
  <path
     style="font-size:14.31169891px;font-style:normal;font-variant:normal;font-weight:bold;font-stretch:normal;line-height:125%;letter-spacing:0px;word-spacing:0px;opacity:0.3;color:#000000;fill:#000000;fill-opacity:1;fill-rule:nonzero;stroke:none;marker:none;visibility:visible;display:inline;overflow:visible;enable-background:accumulate;font-family:Open Sans;-inkscape-font-specification:Open Sans Bold"
     id="path3987"
     d="m 6.1527353,5.7270884 0,0.7021943 C 5.7709003,6.4657617 5.5057398,6.5780222 5.2091617,6.8242671 4.7834942,7.153253 4.7647499,7.797216 5.0775002,8.206712 5.3799016,8.573622 5.7138505,8.743149 6.1527353,8.908907 l 0,0.98746 C 5.6633726,9.856391 5.3246747,9.745905 4.880008,9.54527 l 0,0.811912 c 0.4450768,0.188859 0.7888958,0.275804 1.2727273,0.285267 l 0,0.702194 0.7021944,0 0,-0.702194 C 7.1510921,10.615836 7.3387767,10.54092 7.6010112,10.40107 7.9653068,10.222218 8.2316316,9.853404 8.2154313,9.457496 8.2169761,9.266078 8.153575,9.067498 8.0398827,8.908907 7.7357455,8.503063 7.3137912,8.347823 6.8549297,8.162825 l 0,-0.965517 C 7.218745,7.226898 7.460974,7.326803 7.7985034,7.460631 L 8.127657,6.7145492 C 7.6966529,6.5299058 7.324822,6.4266474 6.8549297,6.4073392 l 0,-0.6802508 z m 0,1.5141066 0,0.746081 C 5.9674979,7.905806 5.8590432,7.781098 5.8674689,7.548405 5.8587989,7.328754 5.9652129,7.262318 6.1527353,7.241195 z m 0.7021944,1.84326 c 0.1837137,0.08965 0.3250135,0.183292 0.3291536,0.416928 0.010554,0.238408 -0.121177,0.323382 -0.3291536,0.351097 z" />
  <path
     style="font-size:14.31169891px;font-style:normal;font-variant:normal;font-weight:bold;font-stretch:normal;line-height:125%;letter-spacing:0px;word-spacing:0px;color:#000000;fill:url(#linearGradient3875);fill-opacity:1;fill-rule:nonzero;stroke:none;marker:none;visibility:visible;display:inline;overflow:visible;enable-background:accumulate;font-family:Open Sans;-inkscape-font-specification:Open Sans Bold"
     id="path3987-0"
     d="m 6.1527353,5.024894 0,0.7021944 C 5.7709003,5.7635674 5.5057398,5.8758279 5.2091617,6.1220727 4.7834942,6.4510585 4.7647499,7.095021 5.0775002,7.504518 5.3799016,7.871428 5.7138505,8.040954 6.1527353,8.206712 l 0,0.987461 C 5.6633726,9.154197 5.3246747,9.04371 4.880008,8.843076 l 0,0.811912 c 0.4450768,0.188859 0.7888958,0.275804 1.2727273,0.285266 l 0,0.702195 0.7021944,0 0,-0.702195 C 7.1510921,9.913641 7.3387767,9.838726 7.6010112,9.698875 7.9653068,9.520023 8.2316316,9.15121 8.2154313,8.755301 8.2169761,8.563884 8.153575,8.365304 8.0398827,8.206712 7.7357455,7.800869 7.3137912,7.645629 6.8549297,7.460631 l 0,-0.9655175 C 7.218745,6.5247039 7.460974,6.6246086 7.7985034,6.7584363 L 8.127657,6.0123548 C 7.6966529,5.8277114 7.324822,5.724453 6.8549297,5.7051448 l 0,-0.6802508 z m 0,1.5141066 0,0.7460814 C 5.9674979,7.203613 5.8590432,7.078904 5.8674689,6.8462106 5.8588038,6.62656 5.9652129,6.5601233 6.1527353,6.5390006 z M 6.8549297,8.382261 c 0.1837137,0.08965 0.3250135,0.183291 0.3291536,0.416928 0.010554,0.238408 -0.121177,0.323382 -0.3291536,0.351097 z" />
  <path
     d="m 8.8061445,11.087394 c -0.4395033,0.09247 -0.7839908,0.519633 -0.78125,0.96875 l 0,1 c 0.00768,0.505097 0.4636535,0.961069 0.9687505,0.96875 l 4,0 c 0.505097,-0.0077 0.961069,-0.463653 0.96875,-0.96875 l 0,-1 c -0.0077,-0.505097 -0.463653,-0.961069 -0.96875,-0.96875 l -4,0 c -0.06231,-0.006 -0.1251902,-0.006 -0.1875005,0 z"
     id="path3862"
     style="font-size:14.31169891px;font-style:normal;font-variant:normal;font-weight:bold;font-stretch:normal;line-height:125%;letter-spacing:0px;word-spacing:0px;opacity:0.15;color:#000000;fill:#000000;fill-opacity:1;fill-rule:nonzero;stroke:none;marker:none;visibility:visible;display:inline;overflow:visible;enable-background:accumulate;font-family:Open Sans;-inkscape-font-specification:Open Sans Bold" />
  <path
     d="m 8.993645,12.056144 0,1 4,0 0,-1 z"
     id="path3864"
     style="font-size:14.31169891px;font-style:normal;font-variant:normal;font-weight:bold;font-stretch:normal;line-height:125%;letter-spacing:0px;word-spacing:0px;opacity:0.3;color:#000000;fill:#000000;fill-opacity:1;fill-rule:nonzero;stroke:none;marker:none;visibility:visible;display:inline;overflow:visible;enable-background:accumulate;font-family:Open Sans;-inkscape-font-specification:Open Sans Bold" />
  <path
     d="m 8.993645,11.056144 0,1 4,0 0,-1 z"
     id="path3866"
     style="font-size:14.31169891px;font-style:normal;font-variant:normal;font-weight:bold;font-stretch:normal;line-height:125%;letter-spacing:0px;word-spacing:0px;color:#000000;fill:url(#linearGradient3880);fill-opacity:1;fill-rule:nonzero;stroke:none;marker:none;visibility:visible;display:inline;overflow:visible;enable-background:accumulate;font-family:Open Sans;-inkscape-font-specification:Open Sans Bold" />
  <rect
     width="17"
     height="17"
     x="3.5012493"
     y="3.4987738"
     id="rect6741-9-5"
     style="opacity:0.3;fill:none;stroke:url(#linearGradient3101);stroke-width:0.99999987999999995;stroke-linecap:round;stroke-linejoin:round;stroke-miterlimit:4;stroke-opacity:1;stroke-dasharray:none;stroke-dashoffset:0" />
  <rect
     width="19.000002"
     height="19.000002"
     rx="1"
     ry="1"
     x="2.4999981"
     y="2.500026"
     id="rect5505-21-8-1"
     style="opacity:0.69999999999999996;color:#000000;fill:none;stroke:#000000;stroke-width:1;stroke-linecap:round;stroke-linejoin:round;stroke-miterlimit:4;stroke-opacity:1;stroke-dasharray:none;stroke-dashoffset:0;marker:none;visibility:visible;display:inline;overflow:visible;enable-background:accumulate" />
</svg>

<svg xmlns="http://www.w3.org/2000/svg" xmlns:xlink="http://www.w3.org/1999/xlink" viewBox="0 0 24 24"><defs><radialGradient cx="4.993" cy="43.5" r="2.5" fx="4.993" fy="43.5" id="g" xlink:href="#a" gradientUnits="userSpaceOnUse" gradientTransform="matrix(2.00378 0 0 1.4 27.988 -17.4)"/><linearGradient id="a"><stop offset="0" stop-color="#181818"/><stop offset="1" stop-color="#181818" stop-opacity="0"/></linearGradient><radialGradient cx="4.993" cy="43.5" r="2.5" fx="4.993" fy="43.5" id="h" xlink:href="#b" gradientUnits="userSpaceOnUse" gradientTransform="matrix(2.00378 0 0 1.4 -20.012 -104.4)"/><linearGradient id="b"><stop offset="0" stop-color="#181818"/><stop offset="1" stop-color="#181818" stop-opacity="0"/></linearGradient><linearGradient x1="25.058" y1="47.028" x2="25.058" y2="39.999" id="i" xlink:href="#c" gradientUnits="userSpaceOnUse"/><linearGradient id="c"><stop offset="0" stop-color="#181818" stop-opacity="0"/><stop offset=".5" stop-color="#181818"/><stop offset="1" stop-color="#181818" stop-opacity="0"/></linearGradient><linearGradient id="d"><stop offset="0" stop-color="#dcdcdc"/><stop offset="1" stop-color="#fff"/></linearGradient><linearGradient xlink:href="#d" id="k" gradientUnits="userSpaceOnUse" gradientTransform="translate(.22 -.328) scale(.46525)" x1="20" y1="26" x2="20" y2="13"/><linearGradient xlink:href="#d" id="l" gradientUnits="userSpaceOnUse" gradientTransform="translate(-2.454 -4.567) scale(.66257)" x1="20" y1="26" x2="20" y2="13"/><linearGradient id="e"><stop offset="0" stop-color="#505050"/><stop offset=".262" stop-color="#2b2b2b"/><stop offset=".705" stop-color="#0a0a0a"/><stop offset="1"/></linearGradient><radialGradient r="12.672" fy="9.957" fx="7.118" cy="9.957" cx="7.118" gradientTransform="matrix(0 4.45294 -5.4668 0 66.838 -38.125)" gradientUnits="userSpaceOnUse" id="j" xlink:href="#e"/><linearGradient id="f"><stop offset="0" stop-color="#fff"/><stop offset=".063" stop-color="#fff" stop-opacity=".235"/><stop offset=".951" stop-color="#fff" stop-opacity=".157"/><stop offset="1" stop-color="#fff" stop-opacity=".392"/></linearGradient><linearGradient y2="43" x2="24" y1="5" x1="24" gradientTransform="translate(.974 .972) scale(.45946)" gradientUnits="userSpaceOnUse" id="m" xlink:href="#f"/></defs><g opacity=".4"><path fill="url(#g)" d="M38 40h5v7h-5z" transform="matrix(.57895 0 0 .42857 -1.895 2.857)"/><path transform="matrix(-.57895 0 0 -.42857 -1.895 2.857)" fill="url(#h)" d="M-10-47h5v7h-5z"/><path fill="url(#i)" d="M10 40h28v7H10z" transform="matrix(.57895 0 0 .42857 -1.895 2.857)"/></g><rect y="2.5" x="2.5" ry="1" rx="1" height="19" width="19" opacity=".9" color="#000" fill="url(#j)" overflow="visible"/><path style="line-height:125%;-inkscape-font-specification:Open Sans Bold" d="M6.02 5.047a.713.713 0 0 0-.548.68v.285c-.23.092-.487.108-.68.264-.005.004.006.017 0 .022-.003.002-.02-.003-.022 0-.737.593-.768 1.636-.24 2.326a.67.67 0 0 0 .02.022c.097.116.224.127.33.22a.717.717 0 0 0-.68.68v.81c0 .27.17.53.417.638.277.117.57.117.855.175v.17a.717.717 0 0 0 .68.68h.703a.717.717 0 0 0 .68-.68v-.22c.12-.05.265-.05.373-.11.01-.008.013-.02.022-.02.562-.29.984-.84.966-1.54v-.02a1.545 1.545 0 0 0-.286-.925.66.66 0 0 0-.022-.02c-.144-.194-.314-.294-.482-.418a.697.697 0 0 0 .33-.33L8.763 7a.72.72 0 0 0-.373-.922c-.27-.115-.57-.134-.855-.197v-.15a.717.717 0 0 0-.68-.68h-.702a.69.69 0 0 0-.132 0zm.42 2.303c-.02-.007.02.024.066.09.038.053.04.092.044.108-.003.024-.017.154-.132.264-.123.117-.204.113-.175.11l-.02-.11zm.33 1.822v.066l-.198.44a.44.44 0 0 1-.066-.155c0-.01.03-.166.13-.263.104-.097.164-.092.133-.088z" font-size="14.312" font-weight="700" letter-spacing="0" word-spacing="0" opacity=".15" color="#000" overflow="visible" font-family="Open Sans"/><path style="line-height:125%;-inkscape-font-specification:Open Sans Bold" d="M6.153 5.727v.702a1.582 1.582 0 0 0-.944.39c-.43.33-.45.97-.14 1.38.3.365.635.534 1.074.7v.986c-.49-.04-.828-.15-1.273-.35v.81c.445.19.79.277 1.273.286v.702h.7v-.705c.297-.027.485-.1.747-.24.366-.18.633-.55.616-.946a.946.946 0 0 0-.176-.548c-.303-.408-.725-.563-1.184-.748v-.96c.363.03.605.13.943.262l.324-.745c-.43-.185-.803-.288-1.273-.308v-.68zm0 1.514v.75c-.186-.08-.294-.2-.286-.44-.008-.22.098-.28.286-.3zm.702 1.85c.184.09.325.187.33.42.01.24-.122.325-.33.35z" font-size="14.312" font-weight="700" letter-spacing="0" word-spacing="0" opacity=".3" color="#000" overflow="visible" font-family="Open Sans"/><path style="line-height:125%;-inkscape-font-specification:Open Sans Bold" d="M6.153 5.025v.702c-.382.037-.647.15-.944.395-.43.33-.45.973-.14 1.383.3.366.635.536 1.074.702v.987c-.49-.04-.828-.15-1.273-.35v.81c.445.19.79.277 1.273.286v.702h.7V9.94c.297-.026.485-.1.747-.24.366-.18.633-.55.616-.945a.946.946 0 0 0-.176-.548c-.303-.406-.725-.56-1.184-.746V6.5c.363.03.605.13.943.263l.324-.746c-.43-.184-.803-.288-1.273-.307v-.68zm0 1.514v.74c-.186-.08-.294-.21-.286-.44-.008-.22.098-.29.286-.31zm.702 1.84c.184.09.325.18.33.41.01.24-.122.323-.33.35z" font-size="14.312" font-weight="700" letter-spacing="0" word-spacing="0" color="#000" fill="url(#k)" overflow="visible" font-family="Open Sans"/><path d="M8.806 11.087c-.44.093-.784.52-.78.97v1c.007.504.463.96.968.968h4c.505-.008.96-.464.968-.97v-1c-.007-.504-.463-.96-.968-.968h-4a.98.98 0 0 0-.188 0z" style="line-height:125%;-inkscape-font-specification:Open Sans Bold" font-size="14.312" font-weight="700" letter-spacing="0" word-spacing="0" opacity=".15" color="#000" overflow="visible" font-family="Open Sans"/><path d="M8.994 12.056v1h4v-1z" style="line-height:125%;-inkscape-font-specification:Open Sans Bold" font-size="14.312" font-weight="700" letter-spacing="0" word-spacing="0" opacity=".3" color="#000" overflow="visible" font-family="Open Sans"/><path d="M8.994 11.056v1h4v-1z" style="line-height:125%;-inkscape-font-specification:Open Sans Bold" font-size="14.312" font-weight="700" letter-spacing="0" word-spacing="0" color="#000" fill="url(#l)" overflow="visible" font-family="Open Sans"/><path opacity=".3" fill="none" stroke="url(#m)" stroke-linecap="round" stroke-linejoin="round" d="M3.5 3.5h17v17h-17z"/><rect width="19" height="19" rx="1" ry="1" x="2.5" y="2.5" opacity=".7" color="#000" fill="none" stroke="#000" stroke-linecap="round" stroke-linejoin="round" overflow="visible"/></svg>
